www/assets/icons/switch_account.svg

<svg width="24" height="24" viewBox="0 0 24 24" xmlns="http://www.w3.org/2000/svg" fill='currentColor'><path d="M4 6H2V20C2 21.1 2.9 22 4 22H18V20H4V6ZM20 2H8C6.9 2 6 2.9 6 4V16C6 17.1 6.9 18 8 18H20C21.1 18 22 17.1 22 16V4C22 2.9 21.1 2 20 2ZM14 4C15.66 4 17 5.34 17 7C17 8.66 15.66 10 14 10C12.34 10 11 8.66 11 7C11 5.34 12.34 4 14 4ZM20 16H8V14.5C8 12.51 12 11.5 14 11.5C16 11.5 20 12.51 20 14.5V16Z"/></svg>

<svg xmlns="http://www.w3.org/2000/svg" width="24" height="24" viewBox="0 0 24 24" fill='currentColor'><path d="M4 6H2v14c0 1.1.9 2 2 2h14v-2H4zm16-4H8c-1.1 0-2 .9-2 2v12c0 1.1.9 2 2 2h12c1.1 0 2-.9 2-2V4c0-1.1-.9-2-2-2m-6 2c1.66 0 3 1.34 3 3s-1.34 3-3 3-3-1.34-3-3 1.34-3 3-3m6 12H8v-1.5c0-1.99 4-3 6-3s6 1.01 6 3z"/></svg>
